lib/healthicons/icons/solid/symbols/yes.svg

<svg fill="none" height="48" viewBox="0 0 48 48" width="48" xmlns="http://www.w3.org/2000/svg"><path clip-rule="evenodd" d="m24 44c11.0457 0 20-8.9543 20-20s-8.9543-20-20-20-20 8.9543-20 20 8.9543 20 20 20zm10.7415-26.3291c.3706-.4095.339-1.0419-.0706-1.4124-.4095-.3706-1.0419-.339-1.4124.0706l-11.9776 13.2384-6.5904-6.2909c-.3995-.3813-1.0325-.3666-1.4139.0329-.3813.3995-.3666 1.0325.0329 1.4139l7.3334 7 .7429.7091.6891-.7616z" fill="#333" fill-rule="evenodd"/></svg>

<svg width="48" height="48" viewBox="0 0 48 48" fill="none" xmlns="http://www.w3.org/2000/svg">
<path fill-rule="evenodd" clip-rule="evenodd" d="M24 44C35.0457 44 44 35.0457 44 24C44 12.9543 35.0457 4 24 4C12.9543 4 4 12.9543 4 24C4 35.0457 12.9543 44 24 44ZM34.7415 17.6709C35.1121 17.2614 35.0805 16.629 34.6709 16.2585C34.2614 15.8879 33.629 15.9195 33.2585 16.3291L21.2809 29.5675L14.6905 23.2766C14.291 22.8953 13.658 22.91 13.2766 23.3095C12.8953 23.709 12.91 24.342 13.3095 24.7234L20.6429 31.7234L21.3858 32.4325L22.0749 31.6709L34.7415 17.6709Z" fill="#333333"/>
</svg>
